X: 27
T: Est-il merchy
N: Derived from Bus3020-Estil_merchy.krn
C: Antoine Busnoys
%%abc-version 2.0
%%abcx-abcm2ps-target-version 5.9.1 (29 Sep 2008)
%%abc-creator hum2abc beta
%%abcx-conversion-date 2019/02/16 20:26:07
%%abc-edited-by Jesse Rodin
%%abc-edited-by Chris Gage 02-10-2015
%%abcx-initial-encoding-date 2015/02/20/
%%humdrum-veritas 2304119047
%%humdrum-veritas-data 3479887980
%%linebreak <none>
%%barnumbers 0
L: 1/4
M: 3/1
Q: 1/2=120
V: 1 clef=treble
V: 2 clef=treble-8
V: 3 clef=bass
K: C
[V:1] z12 | 
[V:2] z12 | 
[V:3] G,2F,E,D,2E,2F,2G,A, | 
[V:1] G2FED2E2F2GA | 
[V:2] z12 | 
[V:3] _B,6G,2A,2B,C | 
[V:1] _B6G2A2Bc | 
[V:2] G2FED2E2F2GA | 
[V:3] D3CD2_B,2A,4 | 
[V:1] d2G4d2c2_BA | 
[V:2] _B6G2A2_Bc | 
[V:3] G,8z4 | 
[V:1] _B2A4G4^F2 | 
[V:2] d3cd2_B2A4 | 
[V:3] G,2D,2F,2G,2D,4 | 
[V:1] G4z2d2d2_B2 | 
[V:2] G8z2d2 | 
[V:3] z2D4_B,2G,4 | 
[V:1] A2G2F2F2G2G2 | 
[V:2] d2_B2A4G2E2 | 
[V:3] F,2G,2D,4E,4 | 
[V:1] A2_B3AGFG4 | 
[V:2] D2d3c_BA_B4 | 
[V:3] F,2G,4A,2E,4 | 
[V:1] A8z4 | 
[V:2] A4d4c2A2 | 
[V:3] z2F,3G,D,2E,2F,2 | 
[V:1] d4c2A2_B4 | 
[V:2] _B4A4G2d2- | 
[V:3] G,4z4G,4 | 
[V:1] A2A2G2d4c2 | 
[V:2] d2c2_B2AG^F4 | 
[V:3] F,4G,4D,4 | 
[V:1] _B2AGF2D2E4 | 
[V:2] G2_B3Ad3^c^c=B | 
[V:3] _E,2G,2D,4A,4 | 
[V:1] D12 | 
[V:2] d8z4 | 
[V:3] D,2G,4F,2G,2_B,2- | 
[V:1] z4z4G4 | 
[V:2] G4F4G4 | 
[V:3] B,CD3CA,2_B,4 | 
[V:1] F4G4D4 | 
[V:2] D4E2G3^F^FE | 
[V:3] A,2D2C2_B,2A,4 | 
[V:1] E2G3^FFEG2_B2 | 
[V:2] G2_B2A3G/F/E2D2 | 
[V:3] G,4D,4z4 | 
[V:1] A3G/F/E4F4- | 
[V:2] z2A3_Bc_B/c/d2c_B | 
[V:3] F,3G,A,4D,4- | 
[V:1] F2E2C2D2E2F2- | 
[V:2] A2GFE2D2C2A2- | 
[V:3] D,4A,,2B,,2C,2D,2 | 
[V:1] FED2C2D4^C2 | 
[V:2] AGF2E2D2E4 | 
[V:3] C,2D,2A,,2B,,2A,,4 | 
[V:1] D4z4A4 | 
[V:2] D6G4^F2 | 
[V:3] A,4_B,4A,4 | 
[V:1] _B3AB3cB2AG | 
[V:2] G4z4G4 | 
[V:3] z4G,4z4 | 
[V:1] _B2A4GFE2F2 | 
[V:2] d8c2A2 | 
[V:3] G,2F,2D,4A,,2D,2 | 
[V:1] G2d3c_B2c2A2 | 
[V:2] _B3AF2D2E2F2 | 
[V:3] _B,,2G,,2B,,4A,,4 | 
[V:1] _B2G2F3G/A/B2A2 | 
[V:2] G2_B2A2d4F2 | 
[V:3] G,,4D,8 | 
[V:1] _B2A3GG3^FFE | 
[V:2] G2F2G4A4 | 
[V:3] z2D,2_E,4D,4 | 
[V:1] G12 |]  
[V:2] G12 |]  
[V:3] G,,12 |]  



